Dominus_Dark_Funeral/scalable/apps/brave.svg

<svg xmlns="http://www.w3.org/2000/svg" xmlns:xlink="http://www.w3.org/1999/xlink" width="48" height="48" viewBox="0 0 12.7 12.7"><defs><linearGradient id="e"><stop offset="0" stop-color="#ffb380"/><stop offset=".4" stop-color="#ff7f2a"/><stop offset="1" stop-color="#a40"/></linearGradient><linearGradient id="d"><stop offset="0"/><stop offset="1" stop-opacity="0"/></linearGradient><linearGradient id="c"><stop offset="0" stop-color="maroon"/><stop offset="1" stop-color="maroon" stop-opacity="0"/></linearGradient><linearGradient id="b"><stop offset="0" stop-color="maroon"/><stop offset="1" stop-color="maroon" stop-opacity="0"/></linearGradient><linearGradient gradientTransform="matrix(1.25 0 0 1.26667 -92.14 -151.08)" gradientUnits="userSpaceOnUse" x2="386.57" y2="540.75" x1="390.57" y1="535.36" id="a"><stop stop-color="#fdbc4b"/><stop stop-color="#dde341" offset="1"/></linearGradient><linearGradient xlink:href="#d" id="g" gradientUnits="userSpaceOnUse" x1="2.68" y1="2.75" x2="12.71" y2="8.13"/><linearGradient xlink:href="#e" id="f" x1="5.09" y1="12.59" x2="5.38" y2="-.11" gradientUnits="userSpaceOnUse"/></defs><path d="M6.35.1C4.81.1 3.57.39 2.66.97A3.67 3.67 0 0 0 1 4.22c0 1.91 1.54 4.47 2.01 5.2.54.85 1.13 1.61 1.65 2.16.68.7 1.21 1.03 1.69 1.03s1.01-.33 1.69-1.03a15.2 15.2 0 0 0 1.65-2.15c.47-.74 2-3.3 2-5.21 0-1.42-.57-2.54-1.65-3.25A6.75 6.75 0 0 0 6.35.09z" fill="url(#f)"/><path d="M6.35.1C4.81.1 3.57.39 2.66.97A3.67 3.67 0 0 0 1 4.22c0 1.91 1.54 4.47 2.01 5.2.54.85 1.13 1.61 1.65 2.16.68.7 1.21 1.03 1.69 1.03s1.01-.33 1.69-1.03a15.2 15.2 0 0 0 1.65-2.15c.47-.74 2-3.3 2-5.21 0-1.42-.57-2.54-1.65-3.25A6.75 6.75 0 0 0 6.35.09zm0 .03C6.91.15 7.44.2 7.9.31a5.82 5.82 0 0 1 1.6.66 3.65 3.65 0 0 1 1.24 1.36c.14.27.25.57.32.88a4.61 4.61 0 0 1-.14 2.53c-.15.52-.36 1.04-.58 1.52-.44.97-.95 1.8-1.18 2.17a15.2 15.2 0 0 1-1.65 2.15 4.9 4.9 0 0 1-.92.78.96.96 0 0 1-.24.1.96.96 0 0 1-.24-.1 4.76 4.76 0 0 1-.92-.78 14.41 14.41 0 0 1-1.65-2.15 19.2 19.2 0 0 1-1.18-2.17c-.22-.48-.43-1-.58-1.52a4.6 4.6 0 0 1-.14-2.52 3.73 3.73 0 0 1 .84-1.64 3.65 3.65 0 0 1 1.45-1A6.83 6.83 0 0 1 6.35.13z" opacity=".35"/><path d="M8.2 11.38A15.2 15.2 0 0 0 9 10.4a15.2 15.2 0 0 0 .68-.98c.23-.37.73-1.2 1.18-2.17.22-.48.42-1 .57-1.52.04-.14.04-.27.07-.4L8.57 2.37l-.75.91-3.87.12-.66.88 1.59 1.24-.18 1.61-.02.73z" opacity=".5" fill="url(#g)"/><path d="M6.74 8.97l.8-.63c.2-.17.24-.22.2-.28a7.8 7.8 0 0 0-1.03-.58c-.34-.16-.38-.16-.71 0-.3.14-.97.51-1.03.58-.06.06-.03.12.12.23l.88.69c.4.38.36.38.77-.02zM5.16 7.59c.4-.22.47-.26.78-.58.26-.26.31-.34.27-.44a4.24 4.24 0 0 0-.44-.47c-.54-.52-.51-.3-.3-.87.11-.34.15-.31.15-.4 0-.15-.05-.25-.14-.33a8.45 8.45 0 0 0-.73-.33l-.65-.3c0-.03.4-.08.7-.1H5l.4.16c.36.14.41.17.44.23l.03.1-.15.75c-.14.67-.14.56-.1.6.05.07.62.22.8.2.2-.01.6-.15.64-.2.04-.04.03.06-.1-.6l-.15-.74.03-.11c.03-.06.08-.09.4-.21.5-.2.49-.2.95-.15.21.02.4.04.4.06.02 0 0 .03-.03.04l-.65.28c-.34.14-.64.29-.69.32-.1.07-.15.18-.15.32 0 .1.03.07.15.4.09.22.15.43.15.45 0 .1-.06.06-.45.42a4.6 4.6 0 0 0-.43.45.25.25 0 0 0-.02.13c.01.06.27.35.54.6.11.1.79.58.9.6.09.02.19-.13.34-.28.16-.15.25-.3.32-.5.06-.19.04-.32-.08-.62-.09-.24-.1-.36-.08-.45 0-.02.25-.28.54-.58.63-.66.78-.77.81-.89a.67.67 0 0 0-.07-.47c-.2-.41-1.06-1.7-1.13-1.7-.38.07-.7.27-1.09.34-.03 0-.16-.09-.29-.13-.55-.2-.73-.21-.84-.21-.1 0-.29.02-.84.2-.13.05-.27.14-.3.14-.39-.06-.68-.29-1.08-.34-.06.05-.62.92-.85 1.3-.27.45-.34.5-.37.68-.03.23.05.27.86 1.11.27.28.5.53.5.55.04.09.01.22-.07.45-.13.32-.14.41-.08.6.07.22.17.39.34.53.15.14.2.28.3.28.03 0 .2-.18.4-.29z" fill="#fff"/></svg>

<?xml version="1.0" encoding="UTF-8" standalone="no"?>
<svg
   xmlns:dc="http://purl.org/dc/elements/1.1/"
   xmlns:cc="http://creativecommons.org/ns#"
   xmlns:rdf="http://www.w3.org/1999/02/22-rdf-syntax-ns#"
   xmlns:svg="http://www.w3.org/2000/svg"
   xmlns="http://www.w3.org/2000/svg"
   xmlns:xlink="http://www.w3.org/1999/xlink"
   xmlns:sodipodi="http://sodipodi.sourceforge.net/DTD/sodipodi-0.dtd"
   xmlns:inkscape="http://www.inkscape.org/namespaces/inkscape"
   width="48"
   height="48"
   viewBox="0 0 12.7 12.7"
   version="1.1"
   id="svg41"
   sodipodi:docname="brave.svg"
   inkscape:version="0.92.4 (5da689c313, 2019-01-14)">
  <metadata
     id="metadata45">
    <rdf:RDF>
      <cc:Work
         rdf:about="">
        <dc:format>image/svg+xml</dc:format>
        <dc:type
           rdf:resource="http://purl.org/dc/dcmitype/StillImage" />
        <dc:title></dc:title>
      </cc:Work>
    </rdf:RDF>
  </metadata>
  <sodipodi:namedview
     pagecolor="#ffffff"
     bordercolor="#666666"
     borderopacity="1"
     objecttolerance="10"
     gridtolerance="10"
     guidetolerance="10"
     inkscape:pageopacity="0"
     inkscape:pageshadow="2"
     inkscape:window-width="1112"
     inkscape:window-height="480"
     id="namedview43"
     showgrid="false"
     inkscape:zoom="4.9166667"
     inkscape:cx="2.1355932"
     inkscape:cy="24"
     inkscape:window-x="0"
     inkscape:window-y="25"
     inkscape:window-maximized="0"
     inkscape:current-layer="svg41" />
  <defs
     id="defs31">
    <linearGradient
       id="e">
      <stop
         offset="0"
         stop-color="#ffb380"
         id="stop2" />
      <stop
         offset=".4"
         stop-color="#ff7f2a"
         id="stop4" />
      <stop
         offset="1"
         stop-color="#a40"
         id="stop6" />
    </linearGradient>
    <linearGradient
       id="d">
      <stop
         offset="0"
         id="stop9" />
      <stop
         offset="1"
         stop-opacity="0"
         id="stop11" />
    </linearGradient>
    <linearGradient
       id="c">
      <stop
         offset="0"
         stop-color="maroon"
         id="stop14" />
      <stop
         offset="1"
         stop-color="maroon"
         stop-opacity="0"
         id="stop16" />
    </linearGradient>
    <linearGradient
       id="b">
      <stop
         offset="0"
         stop-color="maroon"
         id="stop19" />
      <stop
         offset="1"
         stop-color="maroon"
         stop-opacity="0"
         id="stop21" />
    </linearGradient>
    <linearGradient
       gradientTransform="matrix(1.25 0 0 1.26667 -92.14 -151.08)"
       gradientUnits="userSpaceOnUse"
       x2="386.57"
       y2="540.75"
       x1="390.57"
       y1="535.36"
       id="a">
      <stop
         stop-color="#fdbc4b"
         id="stop24" />
      <stop
         stop-color="#dde341"
         offset="1"
         id="stop26" />
    </linearGradient>
    <linearGradient
       xlink:href="#d"
       id="g"
       gradientUnits="userSpaceOnUse"
       x1="2.68"
       y1="2.75"
       x2="12.71"
       y2="8.13" />
    <linearGradient
       xlink:href="#e"
       id="f"
       x1="5.09"
       y1="12.59"
       x2="5.38"
       y2="-.11"
       gradientUnits="userSpaceOnUse" />
  </defs>
  <path
     d="M 6.35,0.1 C 4.81,0.1 3.57,0.39 2.66,0.97 A 3.67,3.67 0 0 0 1,4.22 c 0,1.91 1.54,4.47 2.01,5.2 0.54,0.85 1.13,1.61 1.65,2.16 0.68,0.7 1.21,1.03 1.69,1.03 0.48,0 1.01,-0.33 1.69,-1.03 A 15.2,15.2 0 0 0 9.69,9.43 c 0.47,-0.74 2,-3.3 2,-5.21 0,-1.42 -0.57,-2.54 -1.65,-3.25 A 6.75,6.75 0 0 0 6.35,0.09 Z"
     id="path33"
     style="fill:url(#f)"
     inkscape:connector-curvature="0" />
  <path
     d="M 6.35,0.1 C 4.81,0.1 3.57,0.39 2.66,0.97 A 3.67,3.67 0 0 0 1,4.22 c 0,1.91 1.54,4.47 2.01,5.2 0.54,0.85 1.13,1.61 1.65,2.16 0.68,0.7 1.21,1.03 1.69,1.03 0.48,0 1.01,-0.33 1.69,-1.03 A 15.2,15.2 0 0 0 9.69,9.43 c 0.47,-0.74 2,-3.3 2,-5.21 0,-1.42 -0.57,-2.54 -1.65,-3.25 A 6.75,6.75 0 0 0 6.35,0.09 Z m 0,0.03 C 6.91,0.15 7.44,0.2 7.9,0.31 a 5.82,5.82 0 0 1 1.6,0.66 3.65,3.65 0 0 1 1.24,1.36 c 0.14,0.27 0.25,0.57 0.32,0.88 A 4.61,4.61 0 0 1 10.92,5.74 C 10.77,6.26 10.56,6.78 10.34,7.26 9.9,8.23 9.39,9.06 9.16,9.43 A 15.2,15.2 0 0 1 7.51,11.58 4.9,4.9 0 0 1 6.59,12.36 0.96,0.96 0 0 1 6.35,12.46 0.96,0.96 0 0 1 6.11,12.36 4.76,4.76 0 0 1 5.19,11.58 14.41,14.41 0 0 1 3.54,9.43 19.2,19.2 0 0 1 2.36,7.26 C 2.14,6.78 1.93,6.26 1.78,5.74 A 4.6,4.6 0 0 1 1.64,3.22 3.73,3.73 0 0 1 2.48,1.58 3.65,3.65 0 0 1 3.93,0.58 6.83,6.83 0 0 1 6.35,0.13 Z"
     id="path35"
     inkscape:connector-curvature="0"
     style="opacity:0.35" />
  <path
     d="M 8.2,11.38 A 15.2,15.2 0 0 0 9,10.4 15.2,15.2 0 0 0 9.68,9.42 c 0.23,-0.37 0.73,-1.2 1.18,-2.17 0.22,-0.48 0.42,-1 0.57,-1.52 0.04,-0.14 0.04,-0.27 0.07,-0.4 L 8.57,2.37 7.82,3.28 3.95,3.4 3.29,4.28 4.88,5.52 4.7,7.13 4.68,7.86 Z"
     id="path37"
     style="opacity:0.5;fill:url(#g)"
     inkscape:connector-curvature="0" />
  <path
     d="M 6.74,8.97 7.54,8.34 C 7.74,8.17 7.78,8.12 7.74,8.06 A 7.8,7.8 0 0 0 6.71,7.48 C 6.37,7.32 6.33,7.32 6,7.48 5.7,7.62 5.03,7.99 4.97,8.06 4.91,8.12 4.94,8.18 5.09,8.29 L 5.97,8.98 C 6.37,9.36 6.33,9.36 6.74,8.96 Z M 5.16,7.59 C 5.56,7.37 5.63,7.33 5.94,7.01 6.2,6.75 6.25,6.67 6.21,6.57 A 4.24,4.24 0 0 0 5.77,6.1 C 5.23,5.58 5.26,5.8 5.47,5.23 5.58,4.89 5.62,4.92 5.62,4.83 5.62,4.68 5.57,4.58 5.48,4.5 A 8.45,8.45 0 0 0 4.75,4.17 L 4.1,3.87 C 4.1,3.84 4.5,3.79 4.8,3.77 H 5 L 5.4,3.93 C 5.76,4.07 5.81,4.1 5.84,4.16 L 5.87,4.26 5.72,5.01 C 5.58,5.68 5.58,5.57 5.62,5.61 5.67,5.68 6.24,5.83 6.42,5.81 6.62,5.8 7.02,5.66 7.06,5.61 7.1,5.57 7.09,5.67 6.96,5.01 L 6.81,4.27 6.84,4.16 C 6.87,4.1 6.92,4.07 7.24,3.95 7.74,3.75 7.73,3.75 8.19,3.8 c 0.21,0.02 0.4,0.04 0.4,0.06 0.02,0 0,0.03 -0.03,0.04 L 7.91,4.18 C 7.57,4.32 7.27,4.47 7.22,4.5 7.12,4.57 7.07,4.68 7.07,4.82 c 0,0.1 0.03,0.07 0.15,0.4 0.09,0.22 0.15,0.43 0.15,0.45 0,0.1 -0.06,0.06 -0.45,0.42 A 4.6,4.6 0 0 0 6.49,6.54 0.25,0.25 0 0 0 6.47,6.67 c 0.01,0.06 0.27,0.35 0.54,0.6 0.11,0.1 0.79,0.58 0.9,0.6 C 8,7.89 8.1,7.74 8.25,7.59 8.41,7.44 8.5,7.29 8.57,7.09 8.63,6.9 8.61,6.77 8.49,6.47 8.4,6.23 8.39,6.11 8.41,6.02 8.41,6 8.66,5.74 8.95,5.44 9.58,4.78 9.73,4.67 9.76,4.55 A 0.67,0.67 0 0 0 9.69,4.08 C 9.49,3.67 8.63,2.38 8.56,2.38 8.18,2.45 7.86,2.65 7.47,2.72 7.44,2.72 7.31,2.63 7.18,2.59 6.63,2.39 6.45,2.38 6.34,2.38 6.24,2.38 6.05,2.4 5.5,2.58 5.37,2.63 5.23,2.72 5.2,2.72 4.81,2.66 4.52,2.43 4.12,2.38 4.06,2.43 3.5,3.3 3.27,3.68 3,4.13 2.93,4.18 2.9,4.36 2.87,4.59 2.95,4.63 3.76,5.47 4.03,5.75 4.26,6 4.26,6.02 4.3,6.11 4.27,6.24 4.19,6.47 4.06,6.79 4.05,6.88 4.11,7.07 4.18,7.29 4.28,7.46 4.45,7.6 c 0.15,0.14 0.2,0.28 0.3,0.28 0.03,0 0.2,-0.18 0.4,-0.29 z"
     id="path39"
     inkscape:connector-curvature="0"
     style="fill:#ffffff" />
</svg>
